packages/core/src/svgs/tokens/mono/SLAM.svg

<svg width="24" height="24" viewBox="0 0 24 24" fill="none" xmlns="http://www.w3.org/2000/svg">
<path d="M8.21939 5.15628C8.11977 5.25591 7.98464 5.31188 7.84375 5.31188C7.70285 5.31188 7.56772 5.25591 7.4681 5.15628C7.36847 5.05665 7.3125 4.92153 7.3125 4.78063C7.3125 4.63974 7.36847 4.50461 7.4681 4.40498C7.56772 4.30536 7.70285 4.24939 7.84375 4.24939C7.98464 4.24939 8.11977 4.30536 8.21939 4.40498C8.31902 4.50461 8.37499 4.63974 8.37499 4.78063C8.37499 4.92153 8.31902 5.05665 8.21939 5.15628Z" fill="white"/>
<path d="M16.3892 5.28952C16.3182 5.31238 16.2432 5.32002 16.169 5.31194V5.31818C16.0281 5.31818 15.8929 5.26221 15.7933 5.16259C15.6937 5.06296 15.6377 4.92783 15.6377 4.78694C15.6377 4.64604 15.6937 4.51092 15.7933 4.41129C15.8929 4.31166 16.0281 4.25569 16.169 4.25569C16.2432 4.24761 16.3182 4.25525 16.3892 4.2781C16.4602 4.30095 16.5257 4.33852 16.5812 4.38835C16.6368 4.43817 16.6811 4.49914 16.7116 4.56727C16.7419 4.63541 16.7577 4.7092 16.7577 4.78382C16.7577 4.85843 16.7419 4.93222 16.7116 5.00035C16.6811 5.06849 16.6368 5.12946 16.5812 5.17928C16.5257 5.22911 16.4602 5.26667 16.3892 5.28952Z" fill="white"/>
<path d="M3.67528 12.5181C3.74505 12.5181 3.81413 12.5044 3.87859 12.4777C3.94305 12.451 4.00161 12.4119 4.05093 12.3626C4.10027 12.3132 4.1394 12.2547 4.1661 12.1902C4.1928 12.1258 4.20654 12.0567 4.20654 11.987C4.20654 11.9171 4.1928 11.8481 4.1661 11.7837C4.1394 11.7192 4.10027 11.6606 4.05093 11.6113C4.00161 11.5619 3.94305 11.5228 3.87859 11.4961C3.81413 11.4694 3.74505 11.4557 3.67528 11.4557C3.53439 11.4557 3.39926 11.5117 3.29963 11.6113C3.20001 11.7109 3.14404 11.8459 3.14404 11.987C3.14404 12.1278 3.20001 12.2629 3.29963 12.3626C3.39926 12.4622 3.53439 12.5181 3.67528 12.5181Z" fill="white"/>
<path d="M20.7052 12.3857C20.6044 12.4866 20.4676 12.5432 20.3251 12.5432C20.1825 12.5432 20.0459 12.4866 19.9451 12.3857C19.8442 12.2849 19.7876 12.1483 19.7876 12.0057C19.7876 11.8632 19.8442 11.7264 19.9451 11.6256C20.0459 11.5249 20.1825 11.4681 20.3251 11.4681C20.4676 11.4681 20.6044 11.5249 20.7052 11.6256C20.8059 11.7264 20.8627 11.8632 20.8627 12.0057C20.8627 12.1483 20.8059 12.2849 20.7052 12.3857Z" fill="white"/>
<path d="M8.20036 19.5814C8.10073 19.681 7.9656 19.7368 7.82471 19.7368C7.68381 19.7368 7.54869 19.681 7.44906 19.5814C7.34943 19.4816 7.29346 19.3466 7.29346 19.2057C7.29346 19.0647 7.34943 18.9296 7.44906 18.83C7.54869 18.7304 7.68381 18.6744 7.82471 18.6744C7.9656 18.6744 8.10073 18.7304 8.20036 18.83C8.29998 18.9296 8.35595 19.0647 8.35595 19.2057C8.35595 19.3466 8.29998 19.4816 8.20036 19.5814Z" fill="white"/>
<path d="M16.1494 19.7494C16.2903 19.7494 16.4255 19.6934 16.5251 19.5938C16.6247 19.4942 16.6807 19.359 16.6807 19.2182C16.6807 19.0773 16.6247 18.9422 16.5251 18.8425C16.4255 18.7429 16.2903 18.6869 16.1494 18.6869C16.0086 18.6869 15.8735 18.7429 15.7738 18.8425C15.6742 18.9422 15.6182 19.0773 15.6182 19.2182C15.6182 19.359 15.6742 19.4942 15.7738 19.5938C15.8735 19.6934 16.0086 19.7494 16.1494 19.7494Z" fill="white"/>
<path d="M11.4011 7.88669C11.7825 7.8617 12.1886 7.8617 12.6137 7.89295C12.6191 7.89295 12.6239 7.89142 12.6239 7.89142C12.6261 7.88943 12.6261 7.88482 12.6261 7.87419V6.4617C12.6261 6.3992 12.6638 6.36794 12.7262 6.3742C12.972 6.40437 13.2147 6.45667 13.4513 6.53045C13.4762 6.54294 13.495 6.56795 13.495 6.59295V7.98045C13.495 8.00544 13.5074 8.01794 13.5262 8.01794C14.3258 8.15071 15.0884 8.45102 15.7637 8.89919C15.9074 8.99293 15.9387 9.09919 15.845 9.22417L15.1199 10.1617C15.0575 10.243 14.9637 10.243 14.8574 10.168C13.9742 9.60012 12.9381 9.31648 11.8887 9.35542C11.4262 9.35542 11.0137 9.38663 10.645 9.468C10.0762 9.59298 9.74491 9.79292 9.66368 10.0929C9.55752 10.4617 9.75745 10.7179 10.2512 10.8492C10.5137 10.9241 10.7637 10.9742 11.0199 10.9992L11.7699 11.0617C12.6261 11.1429 13.27 11.218 13.7012 11.293C15.5574 11.6304 16.4324 12.4367 16.3325 13.7179C16.3107 14.0472 16.213 14.3668 16.0472 14.6521C15.8813 14.9372 15.6516 15.1801 15.3762 15.3617C14.8209 15.7308 14.1877 15.966 13.5262 16.0491C13.5074 16.0491 13.5011 16.0617 13.5011 16.0804V17.3929C13.5011 17.4366 13.4762 17.468 13.4387 17.4803C13.22 17.5429 12.9824 17.5929 12.7262 17.6179C12.6638 17.6241 12.6261 17.5992 12.6261 17.5366V16.1617C12.6261 16.1429 12.6261 16.1366 12.6075 16.1366C12.2074 16.1555 11.7949 16.1366 11.3887 16.1054C11.3762 16.1054 11.3762 16.1054 11.3762 16.118V17.5241C11.3762 17.5992 11.3324 17.6304 11.2575 17.6241C11.0249 17.5945 10.7949 17.5466 10.5699 17.4803C10.5261 17.468 10.5075 17.4366 10.5075 17.3929V15.9929C10.5075 15.9742 10.4949 15.9679 10.4763 15.9616C9.51377 15.7741 8.64495 15.3804 7.85745 14.7867C7.68871 14.6554 7.64496 14.5367 7.73246 14.4304C7.98246 14.1179 8.23246 13.8116 8.49496 13.5054C8.56371 13.4179 8.65121 13.4179 8.74496 13.4991C9.49043 14.1287 10.4109 14.5148 11.3825 14.6054C12.045 14.6804 12.7012 14.6742 13.3449 14.5929C13.7824 14.5304 14.1136 14.4179 14.3386 14.2429C14.4636 14.143 14.5511 14.0054 14.5887 13.843C14.6073 13.7657 14.6103 13.6856 14.5975 13.6072C14.5845 13.5289 14.5561 13.4539 14.5136 13.3867C14.3512 13.1367 13.9637 12.9617 13.3449 12.8742C12.8199 12.8054 12.2387 12.7367 11.6012 12.6741C10.8949 12.6117 10.245 12.4867 9.65741 12.2992C8.53246 11.9367 7.95747 11.343 7.90746 10.518C7.88028 10.1832 7.93756 9.84702 8.07406 9.54019C8.21056 9.23335 8.4219 8.96565 8.6887 8.76169C9.15123 8.38044 9.75118 8.13044 10.4824 8.00544C10.4949 8.00544 10.5012 7.99294 10.5012 7.97419V6.6242C10.5012 6.56795 10.5261 6.5367 10.5762 6.5242C10.8012 6.4617 11.0325 6.41169 11.2699 6.38044C11.3324 6.3742 11.3762 6.40545 11.3762 6.46794V7.8617C11.3762 7.88043 11.3762 7.89295 11.4011 7.89295V7.88669Z" fill="white"/>
<path fill-rule="evenodd" clip-rule="evenodd" d="M11.675 2H12.2999C12.675 2.025 13.0062 2.05625 13.2875 2.09374C15.5361 2.37829 17.6189 3.42629 19.1875 5.06249C20.7638 6.69013 21.7382 8.80651 21.95 11.0625L22 11.7125V12.2999C21.9749 12.6499 21.95 12.9499 21.9186 13.2C21.6673 15.4288 20.6566 17.5034 19.0562 19.0749C17.4827 20.6741 15.4051 21.6808 13.1749 21.9249L12.3062 22H11.7C11.3125 21.9749 10.9874 21.9437 10.7249 21.9125C8.47498 21.6124 6.53749 20.6624 4.93748 19.0625C3.35871 17.5123 2.35375 15.4715 2.0875 13.275C2.05625 13.0125 2.025 12.6813 2 12.2937V11.6937C2.02094 11.3587 2.05065 11.0762 2.07443 10.8501L2.0875 10.7249C2.38749 8.47498 3.33749 6.54373 4.93124 4.94374C6.47713 3.36253 8.51686 2.35698 10.7125 2.09374C11.0312 2.05625 11.3562 2.01874 11.675 2ZM10.4314 5.04961C9.03104 5.34961 7.75936 6.07941 6.79388 7.13711C6.62512 7.32461 6.45637 7.34962 6.29387 7.21211L4.96888 6.09961C4.93263 6.07094 4.90277 6.03499 4.88125 5.99408C4.85972 5.95319 4.84699 5.90823 4.84389 5.86212C4.84163 5.81477 4.84936 5.76749 4.86659 5.72335C4.88382 5.67919 4.91015 5.63916 4.94388 5.60586C6.26487 4.14224 8.00751 3.12462 9.93129 2.69338C10.0216 2.66791 10.1174 2.67009 10.2063 2.69962C10.3189 2.74337 10.3939 2.87462 10.4251 3.08712L10.4376 3.14963L10.7001 4.63712C10.7439 4.86212 10.6501 4.99962 10.4314 5.04961ZM17.2375 7.1621C16.2599 6.10393 14.9856 5.36547 13.5813 5.04337C13.3501 4.99336 13.2563 4.84962 13.3 4.61211L13.5939 2.96837C13.6126 2.86212 13.6563 2.78088 13.7438 2.73087C13.825 2.68088 13.9188 2.66838 14.0251 2.68712C15.9876 3.12462 17.6501 4.08712 19.0375 5.57461C19.2188 5.76836 19.2125 5.94962 19.0313 6.09961L17.7188 7.19961C17.55 7.34336 17.3876 7.32461 17.2375 7.1621ZM3.38763 8.86211C3.92947 9.05383 4.46908 9.25173 5.00637 9.45589C5.08279 9.48317 5.14556 9.53931 5.18137 9.61208C5.21875 9.68573 5.22549 9.77104 5.20013 9.84964C4.76654 11.2416 4.76654 12.7326 5.20013 14.1246C5.26263 14.3371 5.19389 14.4746 5.00013 14.5495L3.41264 15.1246C3.36847 15.1473 3.31989 15.1601 3.27026 15.1623C3.22062 15.1645 3.17111 15.1559 3.12513 15.1371C3.07826 15.1179 3.03642 15.0881 3.00283 15.0502C2.96925 15.0123 2.94481 14.9672 2.93139 14.9184C2.33763 13.0434 2.32513 11.1308 2.88764 9.18712C2.91176 9.08985 2.95892 8.99982 3.02513 8.92461C3.11263 8.83085 3.23764 8.8121 3.38763 8.86211ZM20.6063 15.1246L19.0876 14.5809C18.8376 14.4871 18.7376 14.3496 18.7938 14.1621C19.2313 12.7371 19.2313 11.3058 18.8064 9.86204C18.7438 9.65583 18.8188 9.51831 19.0313 9.43708L20.6313 8.86211C20.6732 8.8452 20.7181 8.83704 20.7632 8.83812C20.8084 8.83918 20.8529 8.84948 20.8938 8.86836C20.9813 8.91211 21.0376 8.9746 21.0688 9.06836C21.6625 10.9434 21.6751 12.8684 21.1 14.8371C21.0188 15.1183 20.8501 15.2121 20.6063 15.1308V15.1246ZM4.97514 18.437C6.38763 19.937 8.05636 20.8995 9.99386 21.3121C10.0383 21.3226 10.0844 21.3241 10.1295 21.3166C10.1745 21.309 10.2177 21.2927 10.2564 21.2684C10.2956 21.2447 10.3293 21.2131 10.3552 21.1753C10.381 21.1375 10.3985 21.0947 10.4064 21.0496L10.7001 19.3871C10.7376 19.1433 10.6438 18.9996 10.4125 18.9496C9.01097 18.6464 7.74045 17.9095 6.78138 16.8433C6.73763 16.7933 6.68762 16.7558 6.63137 16.737C6.50638 16.687 6.36888 16.7246 6.21887 16.8496L5.00637 17.8683C4.79388 18.0433 4.78762 18.2308 4.97514 18.437ZM14.0751 21.3058C15.9341 20.8886 17.6254 19.9244 18.9314 18.5371C19.1813 18.2683 19.2125 18.0495 19.0126 17.8871L17.7501 16.8245C17.5626 16.6684 17.3876 16.6746 17.2314 16.8433C16.2537 17.9024 14.9758 18.6372 13.5688 18.9496C13.3501 19.0058 13.2563 19.1433 13.3 19.362L13.5876 21.0183C13.6376 21.2746 13.7938 21.3683 14.0751 21.3058ZM18.6632 11.9994C18.667 12.8749 18.4966 13.7425 18.1618 14.5516C17.827 15.3605 17.3346 16.0949 16.7133 16.7118C16.0964 17.3332 15.362 17.8255 14.5529 18.1604C13.7439 18.4952 12.8762 18.6655 12.0008 18.6617C11.1252 18.6655 10.2575 18.4952 9.44859 18.1604C8.63949 17.8255 7.90514 17.3332 7.28826 16.7118C6.66688 16.0949 6.17447 15.3605 5.83969 14.5516C5.5049 13.7425 5.33445 12.8749 5.33826 11.9994C5.33445 11.1238 5.5049 10.2562 5.83969 9.44714C6.17447 8.63806 6.66688 7.90371 7.28826 7.28683C7.90514 6.66546 8.63949 6.17304 9.44859 5.83826C10.2575 5.50349 11.1252 5.33304 12.0008 5.33685C12.8762 5.33304 13.7439 5.50349 14.5529 5.83826C15.362 6.17304 16.0964 6.66546 16.7133 7.28683C17.3346 7.90371 17.827 8.63806 18.1618 9.44714C18.4966 10.2562 18.667 11.1238 18.6632 11.9994Z" fill="white"/>
</svg>

<svg xmlns="http://www.w3.org/2000/svg" width="24" height="24" fill="none" viewBox="0 0 24 24">
    <path fill="#fff" d="M8.22 5.156a.531.531 0 1 1-.752-.751.531.531 0 0 1 .751.751m8.171.134a.5.5 0 0 1-.221.022v.006a.531.531 0 1 1 0-1.062.531.531 0 0 1 .22 1.034M3.675 12.518a.531.531 0 1 0 0-1.062.531.531 0 0 0 0 1.062m17.03-.132a.537.537 0 1 1-.76-.76.537.537 0 0 1 .76.76M8.2 19.581a.531.531 0 1 1-.75-.751.531.531 0 0 1 .75.751m7.95.169a.531.531 0 1 0 0-1.063.531.531 0 0 0 0 1.062M11.401 7.887a9 9 0 0 1 1.213.006l.01-.002q.003-.002.002-.017V6.462c0-.063.038-.094.1-.088q.37.046.725.156c.025.013.044.038.044.063V7.98q.001.038.031.038a5.75 5.75 0 0 1 2.238.881c.143.094.175.2.081.325l-.725.938c-.062.081-.156.081-.263.006a5.14 5.14 0 0 0-2.968-.813 5.8 5.8 0 0 0-1.244.113c-.569.125-.9.325-.981.625-.106.369.093.625.587.756.263.075.513.125.769.15l.75.063q1.284.12 1.931.231 2.782.505 2.631 2.425a2.14 2.14 0 0 1-.956 1.644 4.3 4.3 0 0 1-1.85.687q-.027.002-.025.031v1.313a.09.09 0 0 1-.062.087 4 4 0 0 1-.713.138c-.062.006-.1-.019-.1-.081v-1.375c0-.02 0-.025-.018-.025-.4.018-.813 0-1.22-.032-.012 0-.012 0-.012.013v1.406c0 .075-.044.106-.118.1a4.4 4.4 0 0 1-.688-.144q-.064-.02-.062-.087v-1.4c0-.019-.013-.025-.032-.031a6.3 6.3 0 0 1-2.619-1.175q-.254-.197-.125-.357c.25-.312.5-.618.763-.925.069-.087.156-.087.25-.006a4.8 4.8 0 0 0 2.638 1.106 8.2 8.2 0 0 0 1.962-.012c.437-.063.769-.175.994-.35a.7.7 0 0 0 .25-.4.6.6 0 0 0-.075-.456c-.163-.25-.55-.425-1.17-.513a54 54 0 0 0-1.743-.2 9 9 0 0 1-1.944-.375c-1.125-.362-1.7-.956-1.75-1.781a2 2 0 0 1 .782-1.756q.695-.571 1.793-.757.02-.002.02-.03v-1.35q0-.084.074-.1.338-.096.694-.145c.062-.006.106.025.106.088v1.394c0 .018 0 .03.025.03z"/>
    <path fill="#fff" fill-rule="evenodd" d="M11.675 2h.625q.564.037.987.094a9.9 9.9 0 0 1 5.9 2.968 9.96 9.96 0 0 1 2.763 6l.05.65v.588q-.036.525-.081.9a9.77 9.77 0 0 1-2.863 5.875 9.74 9.74 0 0 1-5.881 2.85l-.869.075H11.7a18 18 0 0 1-.975-.087c-2.25-.3-4.188-1.25-5.788-2.85a9.76 9.76 0 0 1-2.85-5.788A19 19 0 0 1 2 12.294v-.6c.02-.335.05-.618.074-.844l.014-.125c.3-2.25 1.25-4.181 2.843-5.781a9.7 9.7 0 0 1 5.782-2.85A17 17 0 0 1 11.675 2m-1.244 3.05c-1.4.3-2.672 1.03-3.637 2.087q-.255.282-.5.075L4.969 6.1a.33.33 0 0 1-.125-.238.34.34 0 0 1 .1-.256A9.53 9.53 0 0 1 9.93 2.693a.47.47 0 0 1 .275.007c.113.043.188.175.22.387l.012.063.262 1.487c.044.225-.05.363-.269.413m6.807 2.112a7.16 7.16 0 0 0-3.657-2.119q-.346-.075-.281-.43l.294-1.645c.019-.106.062-.187.15-.237a.4.4 0 0 1 .281-.044c1.963.438 3.625 1.4 5.013 2.888.18.193.174.375-.007.525l-1.31 1.1c-.169.143-.331.125-.482-.038m-13.85 1.7q.812.288 1.618.594c.077.027.14.083.175.156a.3.3 0 0 1 .02.238 7.2 7.2 0 0 0 0 4.275c.062.212-.007.35-.2.425l-1.588.575a.35.35 0 0 1-.288.012.33.33 0 0 1-.194-.219q-.889-2.814-.043-5.73a.6.6 0 0 1 .137-.263c.088-.094.213-.113.363-.063m17.218 6.263-1.518-.544q-.377-.139-.294-.419c.437-1.425.437-2.856.012-4.3-.062-.206.013-.344.225-.425l1.6-.575a.33.33 0 0 1 .263.006.33.33 0 0 1 .175.2q.892 2.814.031 5.77c-.081.28-.25.374-.494.293zm-15.63 3.312c1.412 1.5 3.08 2.462 5.018 2.875a.34.34 0 0 0 .361-.137.3.3 0 0 0 .051-.125l.294-1.663q.058-.364-.287-.437a6.83 6.83 0 0 1-3.632-2.107.35.35 0 0 0-.15-.106q-.187-.075-.412.113l-1.213 1.018c-.212.175-.218.363-.03.569m9.1 2.869a9.54 9.54 0 0 0 4.855-2.769c.25-.269.281-.488.082-.65l-1.263-1.062q-.282-.235-.519.018a7.07 7.07 0 0 1-3.662 2.107c-.219.056-.313.193-.269.412l.288 1.656c.05.257.206.35.487.288m4.587-9.307a6.6 6.6 0 0 1-1.95 4.713A6.6 6.6 0 0 1 12 18.662a6.6 6.6 0 0 1-4.713-1.95 6.6 6.6 0 0 1-1.95-4.713 6.6 6.6 0 0 1 1.95-4.712A6.6 6.6 0 0 1 12 5.337a6.6 6.6 0 0 1 4.712 1.95 6.6 6.6 0 0 1 1.95 4.712" clip-rule="evenodd"/>
</svg>
